X: 17
T: Mason's Apron (R-7)
I: Mason's Apron	R-7	A	reel
M: C|
R: reel
K: A
ed| "A"c2A2 ABAF| EFAB dcBA| "Bm"d2B2 BcBA| Bcde gfed|
    "A"c2A2 ABAF| EFAB dcBA| "D"Bcde "Bm"fefa| "E"edcB "A"A2 :|
|:ed| "A"cAeA fAeA| cAeA fedc | "Bm"dBfB gBfB| dBfB "E"gfed|
    "A"cAeA fAeA| cAeA fedc | "D"Bcde "Bm"fefa| "E"edcB "A"A2 :|
%%text 05/27/09 

#include "RightHeader.h"
% ---------- set 29 ----------
% Money in Both Pockets (D) / Cowboy's (G) / Morrison's (E Dor)
%%text Set 29
%%vskip -1cm
%%scale .6
